public/icons/home-active.svg

<?xml version="1.0" encoding="UTF-8"?>
<svg width="26px" height="25px" viewBox="0 0 26 25" version="1.1" xmlns="http://www.w3.org/2000/svg" xmlns:xlink="http://www.w3.org/1999/xlink">
    <!-- Generator: Sketch 51.2 (57519) - http://www.bohemiancoding.com/sketch -->
    <title>HomeIconActive</title>
    <desc>Created with Sketch.</desc>
    <defs></defs>
    <g id="Symbols" stroke="none" stroke-width="1" fill="none" fill-rule="evenodd">
        <g id="Atoms-/-Nav-/-Dashboard-/-Home-Active" transform="translate(-11.000000, -11.000000)">
            <g id="icn-home">
                <g id="HomeIconActive" transform="translate(13.000000, 13.000000)">
                    <rect id="Rectangle-path" fill-opacity="0" fill="#000000" fill-rule="nonzero" x="0" y="0" width="22" height="22"></rect>
                    <path d="M0,9.42857143 L9.96875,0.309841375 C10.3125,0.0760277836 11.20625,-0.251311244 12.03125,0.309841375 C12.85625,0.870993993 19.0208333,6.62280834 22,9.42857143" id="Shape" stroke="#EF5B72" stroke-width="2.51428571" stroke-linecap="round"></path>
                    <path d="M17.8095238,12.5238095 L17.8095238,18.7916667 C17.8095238,19.9851012 16.9301786,20.952381 15.8452381,20.952381 L6.1547619,20.952381 C5.06990873,20.952381 4.19047619,19.9851012 4.19047619,18.7916667 L4.19047619,12.5238095" id="Shape" stroke="#EF5B72" stroke-width="2.51428571" stroke-linecap="round" stroke-linejoin="round"></path>
                </g>
            </g>
        </g>
    </g>
</svg>

<svg height="25" viewBox="0 0 26 25" width="26" xmlns="http://www.w3.org/2000/svg"><g fill="none" fill-rule="evenodd" transform="translate(2 2)"><path d="m0 0h22v22h-22z" fill="none"/><g stroke="#ef5b72" stroke-linecap="round" stroke-width="2.514286"><path d="m0 9.42857143 9.96875-9.11873006c.34375-.23381359 1.2375-.56115261 2.0625 0 .825.56115262 6.9895833 6.31296697 9.96875 9.11873006"/><path d="m17.8095238 12.5238095v6.2678572c0 1.1934345-.8793452 2.1607143-1.9642857 2.1607143h-9.6904762c-1.08485317 0-1.96428571-.9672798-1.96428571-2.1607143v-6.2678572" stroke-linejoin="round"/></g></g></svg>
